X:1
T:Title
%%score { 1 | ( 2 3 4 ) }
L:1/8
M:6/4
K:Ab
V:1 bass nm="Grand Piano"
V:2 bass 
V:3 bass 
V:4 bass 
V:1
 z6 z4[Q:1/4=100] [CE]2 | [E,CE]2[K:treble] [DF]2 [CE]2[K:bass] [A,C]4 [D,B,D]2 | %2
 [E,CE]2[K:treble] [CEc]4- [CEc]4 [=EB]2 | [A,FA]2 [=EG]2 [FA]2 [FB]2 [FA]2[K:bass] [F,DF]2 | %4
 [E,CE]6- [E,CE]4 [CE]2 | [E,CE]2[K:treble] [DF]2 [CE]2[K:bass] [A,C]4 [D,B,D]2 | %6
 [E,CE]2[K:treble] [Ec]4- [Ec]4 [CEc]2 | [CEc]2 [Ec]2 [EG]2 [_CF_c]4 [FG]2 | %8
[M:5/4] [Ec]2- [Ec]2- [Ec]6 |[M:1/4] [Ed]2 |[M:6/4] [Ec] [Ec]3 [Fd]2 [Ec]4 [DB]2 | %11
 [CA]2 [Ec]4- [Ec]4 [CE]2 | [Ec]2 [Fd]2 [Ec]2 B2 c3 B | [CA]6- [CA]4 [_GA]2 | %14
 [FA]2 [FA]2 [FA]2 [EG]4 [DF]2 | [CE]2 [Ec]4- [Ec]4 [Fd]2 | c2 c2 A2 c4 B2 | %17
[M:5/4] [CA]2- [CA]2- [CA]6 |] %18
V:2
 z6 z4 E,2 | z2 F,2 E,2 C,4 A,,2 | A,,2 [A,,A,]4- [A,,A,]4 [C,G,B,]2 | z2 G,2 A,2 B,2 A,2 D,2 | %4
 A,,6- A,,4 E,2 | z2 F,2 E,2 C,4 A,,2 | z2 C4- C4 z2 | z2 C2 G,2 z4 G,2 | %8
[M:5/4] [C,G,]2- [C,G,]2- [C,G,]6 |[M:1/4] [E,G,]2 | %10
[M:6/4] [A,,A,] [A,,A,]3 [A,,A,]2 [E,A,]4 [E,G,]2 | [A,,A,]2 [A,,A,]4- [A,,A,]4 [A,,A,]2 | %12
 [A,,A,]2 [A,,A,]2 [A,,A,]2 [E,G,D]2 [E,A,E]3 [E,G,D] | [A,,E,]6- [A,,E,]4 [A,C]2 | %14
 [D,D]2 [D,D]2 [D,D]2 [D,D]4 [D,A,]2 | [A,,A,]2 [A,,A,]4- [A,,A,]4 [D,A,]2 | %16
 [E,A,E]2 [E,A,E]2 [E,A,C]2 [E,G,E]4 [E,G,D]2 |[M:5/4] [A,,E,A,]2- [A,,E,A,]2- [A,,E,A,]6 |] %18
V:3
 x12 | A,,12 | x12 | D,12 | x12 | A,,12 | z6 A,4 [A,,A,]2 | .G,6 G,,6 |[M:5/4] x10 |[M:1/4] x2 | %10
[M:6/4] x12 | x12 | x12 | x12 | x12 | x12 | x12 |[M:5/4] x10 |] %18
V:4
 x12 | x12 | x12 | x12 | x12 | x12 | A,,12 | x12 |[M:5/4] x10 |[M:1/4] x2 |[M:6/4] x12 | x12 | %12
 x12 | x12 | x12 | x12 | x12 |[M:5/4] x10 |] %18

